X:1
T:Farewell to Whiskey
C:Neil Gow, c. 1801
L:1/4
M:4/4
I:linebreak $
K:G
V:1 treble
V:1
 G/E/ |"G" D G B G/B/ |"Am" A E E/F/G/E/ |"G" D G B A/B/ |"Bm" d B B d |$
"C" e g "G"d B |"Am" c/B/A/G/ "D"A B |"G" D  G "D"B/A/G/A/ |"G" B  G G :|$
 B/c/ |"G" d B g B |"Am" c/B/A/G/ "D"A B/c/ |"G" d B/d/ g d |"C" e g g d |$
"C" e/f/g/e/ "G" d B/d/ |"Am" c/B/A/G/ "D"A B |"G" D G "D"B/A/G/A/ |"G" B G G :|
